app/public/icon/scenario_boats/bateaux-08.svg

<svg width="70" height="14" viewBox="0 0 70 14" xmlns="http://www.w3.org/2000/svg"><title>bateaux-08</title><g fill="none" fill-rule="evenodd"><path d="M5.15 8.887l-3.7 2.687 61.495.553L69 6.78H25.314L22.04 9.038l-16.89-.15" fill="#4D4D4C"/><path d="M4.555 10.58l58.008.522 3.738-3.3H25.63l-3.01 2.076c-.174.12-.352.193-.59.18L5.478 9.91l-.923.67zm58.39 2.568h-.01l-61.494-.553c-.44-.004-.828-.29-.962-.71-.135-.42.016-.878.372-1.137l3.7-2.687c.177-.128.38-.164.61-.194l16.566.147 3.007-2.073c.17-.117.373-.18.58-.18H69c.426 0 .806.263.956.66.15.397.04.846-.28 1.127l-6.055 5.346c-.185.164-.426.255-.675.255z" fill="#4D4D4C"/><path d="M10.25 7.332l2.1-1.51h11.652l-2.866 1.51H10.25M15.04 5.322l1.398-1.21h3l2.336-2.01 5.04.045L28.646.254h8.597L38.5 1.51l6.773.224 14.174 3.588H15.04" fill="#E4E5E3"/></g></svg>

<?xml version="1.0" encoding="UTF-8" standalone="no"?>
<svg width="70px" height="14px" viewBox="0 0 70 14" version="1.1" xmlns="http://www.w3.org/2000/svg" xmlns:xlink="http://www.w3.org/1999/xlink" xmlns:sketch="http://www.bohemiancoding.com/sketch/ns">
    <!-- Generator: Sketch 3.0 (7574) - http://www.bohemiancoding.com/sketch -->
    <title>bateaux-08</title>
    <description>Created with Sketch.</description>
    <defs></defs>
    <g id="Page-1" stroke="none" stroke-width="1" fill="none" fill-rule="evenodd" sketch:type="MSPage">
        <g id="bateaux-08" sketch:type="MSLayerGroup">
            <path d="M5.15,8.887 L1.45,11.574 L62.945,12.127 L69.001,6.781 L25.313,6.781 L22.039,9.037 L5.15,8.887" id="Fill-2" fill="#4D4D4C" sketch:type="MSShapeGroup"></path>
            <path d="M4.555,10.581 L62.563,11.102 L66.301,7.802 L25.63,7.802 L22.619,9.878 C22.446,9.997 22.268,10.071 22.03,10.058 L5.478,9.911 L4.555,10.581 L4.555,10.581 Z M62.945,13.148 L62.936,13.148 L1.441,12.595 C1,12.591 0.612,12.305 0.478,11.885 C0.343,11.465 0.494,11.007 0.85,10.748 L4.55,8.061 C4.727,7.932 4.929,7.896 5.16,7.866 L21.726,8.013 L24.733,5.94 C24.903,5.823 25.106,5.76 25.313,5.76 L69.001,5.76 C69.426,5.76 69.806,6.023 69.956,6.42 C70.106,6.817 69.995,7.266 69.677,7.547 L63.621,12.893 C63.435,13.057 63.194,13.148 62.945,13.148 L62.945,13.148 Z" id="Fill-3" fill="#4D4D4C" sketch:type="MSShapeGroup"></path>
            <path d="M10.25,7.332 L12.351,5.822 L24.002,5.822 L21.136,7.332 L10.25,7.332" id="Fill-4" fill="#E4E5E3" sketch:type="MSShapeGroup"></path>
            <path d="M15.041,5.322 L16.438,4.111 L19.438,4.111 L21.774,2.102 L26.813,2.147 L28.647,0.254 L37.244,0.254 L38.5,1.51 L45.273,1.734 L59.447,5.322 L15.041,5.322" id="Fill-5" fill="#E4E5E3" sketch:type="MSShapeGroup"></path>
        </g>
    </g>
</svg>
